public/assets/icons/npc_tier_3.svg

<?xml version="1.0" standalone="no"?>
<!DOCTYPE svg PUBLIC "-//W3C//DTD SVG 1.1//EN" "http://www.w3.org/Graphics/SVG/1.1/DTD/svg11.dtd" >
<svg xmlns="http://www.w3.org/2000/svg" xmlns:xlink="http://www.w3.org/1999/xlink" version="1.1" viewBox="0 -64 1024 1024" width="512" height="512">
  <g transform="matrix(1 0 0 -1 0 960)">
   <path fill="currentColor"
d="M512 823q-102 0 -153.5 -34l-51.5 -34v-156l205 128l205 -128v156l-51.5 34t-153.5 34zM512 647l-205 -128v-56l205 128l205 -128v56zM512 510l-205 -128v-56l205 128l205 -128v56zM512 374l-205 -128v-3l205 -205l205 205v3z" />
  </g>

</svg>

<?xml version="1.0" encoding="UTF-8" standalone="no"?>
<svg
   version="1.1"
   viewBox="0 -64 1024 1024"
   width="512"
   height="512"
   id="svg1368"
   sodipodi:docname="npc_tier_3.svg"
   inkscape:version="1.2.2 (732a01da63, 2022-12-09)"
   xmlns:inkscape="http://www.inkscape.org/namespaces/inkscape"
   xmlns:sodipodi="http://sodipodi.sourceforge.net/DTD/sodipodi-0.dtd"
   xmlns="http://www.w3.org/2000/svg"
   xmlns:svg="http://www.w3.org/2000/svg">
  <defs
     id="defs1372" />
  <sodipodi:namedview
     id="namedview1370"
     pagecolor="#ffffff"
     bordercolor="#000000"
     borderopacity="0.25"
     inkscape:showpageshadow="2"
     inkscape:pageopacity="0.0"
     inkscape:pagecheckerboard="0"
     inkscape:deskcolor="#d1d1d1"
     showgrid="false"
     inkscape:zoom="1.6191406"
     inkscape:cx="236.23643"
     inkscape:cy="256.30881"
     inkscape:window-width="1920"
     inkscape:window-height="1009"
     inkscape:window-x="-8"
     inkscape:window-y="-8"
     inkscape:window-maximized="1"
     inkscape:current-layer="svg1368" />
  <g
     transform="matrix(1,0,0,-1,0,878.5)"
     id="g1366">
    <path
       fill="currentColor"
       d="M 512,823 Q 410,823 358.5,789 L 307,755 V 599 L 512,727 717,599 v 156 l -51.5,34 q 0,0 -153.5,34 z M 512,647 307,519 V 463 L 512,591 717,463 v 56 z M 512,510 307,382 V 326 L 512,454 717,326 v 56 z M 512,374 307,246 v -3 L 512,38 717,243 v 3 z"
       id="path1364" />
  </g>
</svg>
